X:647
T:Saint Andrew's Fair
S:Colin Hume's website,  colinhume.com  - chords can also be printed below the stave.
Q:3/8=112
M:6/8
L:1/8
K:C
P:A
|: G | "C"c2c Gce | "C"g2g g2e | "G7"gfd "C"fec | "Dm"dfe "G7"d2G |\
"C"c2c Gce | "C"g2g g2e | "Dm"d2a "G7"g2f | "C"e2c c2 :|
P:B
B/c/ | "G"d2 G G2 e | "G"d2G G2g | "D7"^fed def | "G"dab g2 B/c/ |\
"G"d2 G G2 e | "G"d2G G2g | "D7"^fed def | "G"gde "G7"=fAB ||
| "C"c2c Gce | "C"g2g g2e | "G7"gfd "C"fec | "Dm"dfe "G7"d2G |\
"C"c2c Gce | "C"g2g g2e | "Dm"d2a "G7"g2f | "C"e2c c2 |]

